X:03
T: Sledd Ridin'
C: Bobby Osborne and Dale Sledd
S: MandoZine TablEdit Archives
Z: TablEdited by Mike Stangeland for MandoZine
L: 1/8
Q: 470
M: 4/4
K: A
 z2 c2 d2 ^d2 | "A"ee ze ze e2 | e2 ea fe cA | FG AB cd cB |
 AB AF EF A2 | ce ze ze e2 | e2 ea fe cA | "A7"=G2 A3A =G2 |
 A3=G =G=G A2 | "D"a3d f2 bf | a2 fa ba f2 | F2 A2 FB zF |
 A2 AA AA F2 | "A"ce ee ze e2 | e2 ef ec BA | FG AB cd cB |
 A2 EF GA cA | "Bm"BA Bc df ed | "E"BA Bc dB cB | "A"AB AF EF ED |
 A2 AA AA A2 | "Bm"B2 d2 f4 | "E"z2 c'2 ba fe | "A"aa aa fe cA |
 =G2 a2 a2 f2 | "D"a2 fa ff a2 | a2 ab af ed | F2 A2 FB zF |
 A2 AA AD FA | "A"ce ze ze e2 | e2 ea fe cA | FG AB cd cB |
 AF EF AB B2 | "D"za zf af a2 | a2 fa ba a2 | F2 A2 FB zF |
 A2 AA AD F2 | "E"ef ge fe cd | eg fe cd eg | fe cd ef ec |
 Be cB FG Bc | Bc BG FG BB | Bc dc BG FG | =G=G =G2 FE C2 | E8 |
